X:301
T:Money in the Bank
C:Lonesome River Band - Carrying the Tradition
N: Solo Dan Tyminski - Transcribed by Philippe Colleu
R:bluegrass
L:1/8
Q:1/4=180
M:4/4
K:C
"100 bpm""A"^G/z/A AA ^cd ^d2 | [g/^d/]z/e eg [g/d/]z/e eg | ^d/=d/c dc d/e/e [g2e2] | 
"D"F/^F/d =F^F d=F ^Fd | ^d/e/a e=d cA c^c | "A"^G/z/A AA c^c dz | "E"^de [^g/d/]z/e =dA c/z/^c | 
"A"AG E2 EG ^D/E/E | EE G^G A^c/z/ d^d | "A"eg ^de gd eg | e/d/c dc de eD | "D"F/^F/d =F^F d=F ^Fd | 
^d[ge] [g2e2] [ge]e =d2 | "A"c/^c/A ^F2 ^G/z/A AA | A/G/E GE G/z/A AA | c/^c/A d2 "E"^de [^g/d/]z/e | 
dA c/z/^c "A"A{G}A AG | E^D =D^C A,4 | 


